X: 1
T: Nutcracker
R: reel
M: 4/4
L: 1/8
K: Dmaj
ag|:fdec dAFA|BGGF GABd|cAAB cdeg|fded ceag|
fddc dAFA|GBEF GABd|ceAB cdeg|1fdec deag:|2fdec defg||
~a3f dfaf|gfed cAAB|cAeA fged|cAAB cdeg|
f2af dfaf|gfed cdeg|f2af g2ab|agec defg|
a2af dfaf|gfed cAAB|cAeA fged|cAAB cdeg|
fdad bdaf|gfed cdeg|f2af g2ab|agec deaf||

